fs/mic_prohibited_28_regular.svg

<svg viewBox="0 0 28 28" fill="none" xmlns="http://www.w3.org/2000/svg" height="1em" width="1em">
  <path d="M8.5 6.5C8.5 4.01472 10.5147 2 13 2C15.4853 2 17.5 4.01472 17.5 6.5V13.6241C16.9645 13.858 16.4616 14.1527 16 14.4995V6.5C16 4.84315 14.6569 3.5 13 3.5C11.3431 3.5 10 4.84315 10 6.5V14.5C10 16.1569 11.3431 17.5 13 17.5C13.2253 17.5 13.4448 17.4752 13.6559 17.4281C13.4326 17.9249 13.2618 18.4504 13.1505 18.9975C13.1006 18.9992 13.0504 19 13 19C10.5147 19 8.5 16.9853 8.5 14.5V6.5ZM13.0164 20.9999L13 20.9999C9.41015 20.9999 6.5 18.0893 6.5 14.4995V13.7505C6.5 13.3363 6.16421 13.0005 5.75 13.0005C5.33579 13.0005 5 13.3367 5 13.7509V14.4999C5 18.6653 8.18341 22.0871 12.25 22.4652V25.2499C12.25 25.6641 12.5858 25.9999 13 25.9999C13.4142 25.9999 13.75 25.6641 13.75 25.2499V23.7731C13.3383 22.9256 13.0815 21.9889 13.0164 20.9999ZM20.5 27C24.0899 27 27 24.0899 27 20.5C27 16.9101 24.0899 14 20.5 14C16.9101 14 14 16.9101 14 20.5C14 24.0899 16.9101 27 20.5 27ZM20.5 25.5C19.3899 25.5 18.3642 25.1382 17.5346 24.5261L24.5261 17.5346C25.1382 18.3642 25.5 19.3899 25.5 20.5C25.5 23.2614 23.2614 25.5 20.5 25.5ZM23.4654 16.4739L16.4739 23.4654C15.8618 22.6358 15.5 21.6101 15.5 20.5C15.5 17.7386 17.7386 15.5 20.5 15.5C21.6101 15.5 22.6358 15.8618 23.4654 16.4739Z" fill="#212121"/>
</svg>

<svg viewBox="0 0 28 28" fill="none" xmlns="http://www.w3.org/2000/svg" height="1em" width="1em">
  <path d="M8.5 6.5a4.5 4.5 0 1 1 9 0v7.124a7.486 7.486 0 0 0-1.5.875V6.5a3 3 0 1 0-6 0v8a3 3 0 0 0 3.656 2.928 7.448 7.448 0 0 0-.506 1.57L13 19a4.5 4.5 0 0 1-4.5-4.5v-8ZM13.016 21H13a6.5 6.5 0 0 1-6.5-6.5v-.75a.75.75 0 1 0-1.5 0v.75a8 8 0 0 0 7.25 7.965v2.785a.75.75 0 0 0 1.5 0v-1.477A7.457 7.457 0 0 1 13.016 21Zm7.484 6a6.5 6.5 0 1 0 0-13 6.5 6.5 0 0 0 0 13Zm0-1.5a4.978 4.978 0 0 1-2.965-.974l6.991-6.991A5 5 0 0 1 20.5 25.5Zm2.965-9.026-6.991 6.991a5 5 0 0 1 6.991-6.991Z" fill="#212121"/>
</svg>
